X:29
T:McKenna's
R:Jig
S:Gerry O'Connor, Louth (fiddle)
D:From RTE 'The Pure Drop'
N:As played (sort of)
M:6/8
Z:Bernie Stocks
K:D
|: E2E {F}EDB, | {F}EDE GAB | edB {d}BAF | dAF AFD | ~E3 {F}EDB, | EDE GAB | 
edB {d}BAF |1 AdF EDB, :|2 AdF Ecd |: efe {f}edB | baf edB | (3.A.A.Ad AFd | 
AFd AFD | ~E3 EB,E | DED DA,D | DED dAF |1 EFD Ecd :|2 EFD EB,D ||
